!!! OTL: Berkowitz472
!!! Chapter: 1
!!! Section: IV
!!! Page: 117
!!! Mode: 
!!! Encoder: DJB
**kern
*staff1
*I"Piano
=1-
*clefF4
*k[b-]
*F:
*M4/4
8r
8A\L
8c\
8d\J
8e-\L
8d\
8c\
8Bn\J
=2
8c\
4.c\
4A\
4AA/
=3
8r
8BB-\L
8D\
8F\J
8A-\L
8G\
8F\
8D\J
=4
1F
=5
8r
8A\L
8c\
8d\J
8e-\L
8d\
8c\
8Bn\J
=6
8c\L
8d\
8c\
[8A\J
4A\]
4C/
=7
!!linebreak:original
8r
8BB-\L
8D\
8F\J
8A-\L
8G\
8F\
8D\J
=8
1F
=9
8C\L
8D\
8F\
[8G\J
8G\]
4F\
8G\
=10
4A\
2.c\
=11
8E-\L
8F\
8A-\
[8B-\J
8B-\]
4A-\
8B-\
=12
1c
=13
8r
8A\L
8c\
8d\J
8e-\L
8d\
8c\
8Bn\J
=14
!!linebreak:original
8c\
4.c\
4A\
4AA/
=15
8r
8BB-\L
8D\
8F\J
4.A-\
8A-\
=16
4A\
2.F\
==
*-
